X:1
T:Snug in the Blanket (Jig)
M:4/4
L:1/8
F:http://blackrosetheband.googlepages.com/ABCTUNES.ABC May 2009
S:The Angus Sessions Podcast
R:jig
K:G
|:\
"D"A2B cBc | DDD c2A | "G"BdB cBF | GFG B2G |\
"D"A2B cBc | DDD c2A | "G"BdB cBF | GBA G3 :|
|:\
"D"F2G ADD | ADB AFD | F2G ADD | "C"E2F GEC |\
"D"F2G ADD | ADB AFD | "G"BdB cAF | GBA G3 :|
